assets/svgs/icon-search.svg

<svg width="32" height="32" viewBox="0 0 32 32" fill="none" xmlns="http://www.w3.org/2000/svg" class="svg__icon-search">
  <path
    d="m20.9713 19.7959-.5303-.5304-1.0608 1.0606.5303.5304 1.0608-1.0606Zm4.9773 7.0995.5303.5304 1.0608-1.0606-.5303-.5303-1.0608 1.0605Zm-8.0253-3.9811c4.9037-2.084 7.1895-7.7487 5.1055-12.6524l-1.3805.5867c1.76 4.1413-.1704 8.9252-4.3117 10.6852l.5867 1.3805Zm5.1055-12.6524c-2.084-4.90375-7.7487-7.18956-12.6524-5.10553l.5867 1.3805c4.1413-1.76 8.9252.17041 10.6852 4.31173l1.3805-.5867ZM10.3764 5.15637C5.47265 7.2404 3.18684 12.9051 5.27087 17.8088l1.3805-.5867c-1.76-4.1413.17041-8.92522 4.31173-10.68523l-.5867-1.3805ZM5.27087 17.8088c2.08403 4.9037 7.74873 7.1895 12.65243 5.1055l-.5867-1.3805c-4.1413 1.76-8.92522-.1704-10.68523-4.3117l-1.3805.5867Zm14.63963 3.0477 6.0381 6.0389 1.0608-1.0605-6.0381-6.039-1.0608 1.0606Z"
    fill="#0B6AB7" class="svg__fill--primary-blue-03" />
</svg>

<svg width="32" height="32" viewBox="0 0 32 32" fill="none" xmlns="http://www.w3.org/2000/svg" class="svg__icon-search">
<path d="M20.9713 19.7959L20.441 19.2655L19.3802 20.3261L19.9105 20.8565L20.9713 19.7959ZM25.9486 26.8954L26.4789 27.4258L27.5397 26.3652L27.0094 25.8349L25.9486 26.8954ZM17.9233 22.9143C22.827 20.8303 25.1128 15.1656 23.0288 10.2619L21.6483 10.8486C23.4083 14.9899 21.4779 19.7738 17.3366 21.5338L17.9233 22.9143ZM23.0288 10.2619C20.9448 5.35815 15.2801 3.07234 10.3764 5.15637L10.9631 6.53687C15.1044 4.77687 19.8883 6.70728 21.6483 10.8486L23.0288 10.2619ZM10.3764 5.15637C5.47265 7.2404 3.18684 12.9051 5.27087 17.8088L6.65137 17.2221C4.89137 13.0808 6.82178 8.29688 10.9631 6.53687L10.3764 5.15637ZM5.27087 17.8088C7.3549 22.7125 13.0196 24.9983 17.9233 22.9143L17.3366 21.5338C13.1953 23.2938 8.41138 21.3634 6.65137 17.2221L5.27087 17.8088ZM19.9105 20.8565L25.9486 26.8954L27.0094 25.8349L20.9713 19.7959L19.9105 20.8565Z" fill="#0B6AB7" class="svg__fill--primary-blue-03"/>
</svg>
